!!!ONR: No. 16
!! Transcription 16
!!!SINGER: Marcelina Sa/nchez Pimientel
!!!PLACE: South America, Colombia, Evitar
!!!DATE: 1964 November 1
!! From George List, "Music and Poetry in a Colombian Village:
!! A Tri-Cultural Heritage"
!! Bloomington, Indiana: Indiana University Press, 1983
**kern
*k[b-]
*clefG2
*M2/4
*MM176
{8g
=
[8b-
16b-]
[16dd
8dd]
8a
=
[8cc
16cc]
[16g
8g]}
8r
=
{8b-
4b-
16a
16a
*M3/8
=
[8g
16g]
[16g
8g]
*M2/4
=
[8b-
16b-]
[16b-
8b-]
8a
=
[8cc
16cc]
[16g
8g]}
8r
=
{8b-
4b-
16a
16a
*M3/8
=
[8g
16g]
[16g
8g]}
*M2/4
=
{[8b-
16b-]
[16dd
8dd]
8a
=
[8cc
16cc]
[16g
8g]}
8r
=
{8b-
4b-
8a
*M3/8
=
[8g
16g]
[16g
8g]
*M2/4
=
[8b-
16b-]
[16b-
8b-]
8a
=
[8cc
16cc]
[16g
8g]
8r
=
8b-
4b-
8a
=
8g}
8r
4r
=
{8b-
4dd
8a
=
8cc
8cc}
{8g
8g
=
8b-
4b-
8a
=
8g
8g}
{4g
=
8b-
4dd
8a
=
8cc
8cc}
{8g
8g
=
8b-
4b-
8a
=
8g
8g}
{8g
8g
=
8b-
4b-
8a
=
8cc
8cc}
{8g
8g
=
8a
(8gg%
4dd%
=
4g)}
{8g
8g
=
8b-
4dd
8a
=
8cc
8cc}
{8g
8g
=
8b-
8r
8aa}
8r
=
4r
{8g
8g
=
8b-
4b-
8a
=
8cc
8cc}
{8g
8g
=
8b-
(8gg%
4dd%
=
4g)}
{8g
8g
=
8b-
4dd
8a
=
8cc
8cc}
{8g
8g
=
8b-
(8aa-%
8bb-%
8dd%
=
8b-)}
4r
==
*-
